X:1
T:Title
%%score [ ( 1 2 ) ( 3 4 ) ]
L:1/8
Q:1/4=120
M:none
K:C
V:1 treble nm="Midi_74" snm=" "
V:2 treble 
V:3 bass nm="Midi_74"
V:4 bass 
V:1
"^Vivace""^SOLO""^Words from\n\"A Mediaeval Anthology\"" z2 |[M:4/4] z8 | %2
w: ||
[M:5/4]"^Of one that is so fair and bright" z10 |"^TUTTI"!f! e4 d2 d2 c2 | %4
w: ||
[M:3/4] d2"^Gustav Holst\n(1874-1934)" c4 |[M:4/4]"^SOLO" z8 |[M:5/4] z10 |"^TUTTI" e4 d2 d2 c2 | %8
w: ||||
[M:4/4] d2 c4"^SOLO" z2 | z8 |[M:5/4] z10 |[M:4/4] z8 |[M:6/4] z4 z2 z4"^TUTTI"!p! c2 | %13
w: |||||
[M:4/4] d4 c4 |[M:5/4]"^SOLO" z10 |[M:3/4] z2 z2"^TUTTI"!f!"^a tempo" d2 |[M:5/4] d4 c4 || %17
w: ||||
[M:5/4]"^SOLO"!f! G2 |[M:4/4] c2 G2 A2 B2 |[M:5/4] c4 d2 e4 |"^TUTTI"!f! e4 d2 d2 c2 | %21
w: In|sor- row, coun- sel|thou art best,||
[M:4/4] d2 c4"^SOLO" G2 |[M:4/4] c2 G2 A2 B2 |[M:5/4] c4 d2 e4 |"^TUTTI" e4 d2 d2 c2 | %25
w: * * For|all the wea- ry|thou art rest,||
[M:4/4] d2 c4"^SOLO"!p! G2 | A2 B2 c2 B2 |[M:5/4] B4 G2 A4 |[M:4/4] e2 A2 B2 c2 | %29
w: * * Be-|seech Him in thy|mild- est mood,|Who for us did|
[M:6/4] e4 e2 f6- |[M:4/4] f6"^SOLO" e2 |[M:5/4]"^rit." d2 c2 e4 d2 |[M:3/4] d4"^TUTTI"!f! d2 | %33
w: shed His blood|* That|we may come to|Him *|
[M:4/4]"^a tempo" d4 c4 ||[M:4/4]!p!"^SOLO QUARTET" c2 G2 A2 B2 |[M:5/4] c4 d2 e4 | %36
w: |La- dy, flow'r of|ev- 'ry- thing,|
!f!"^TUTTI" e4 d2 d2 c2 |[M:3/4] d2 c4 |[M:4/4]"^QUARTET"!p! c2 G2 A2 B2 |[M:5/4] c4 d2 e4 | %40
w: ||Thou bore Je- sus|Hea- ven's King,|
!f!"^TUTTI" e4 d2 d2 c2 |[M:4/4] d2 c4!p!"^QUARTET" G2 |[M:4/4] A2 B2 c2 B2 |[M:5/4] B4 G2 A4 | %44
w: ||all I say thou|bore the prize,|
[M:4/4] e2 A2 B2 c2 |[M:6/4] e4 e2 f4-!p!"^TUTTI" f2 |[M:4/4] f8 | %47
w: La- dy, Queen of|Pa- ra- dise *||
"^rit.""^QUARTET"!p! c2 A2"^cresc." (G2 A2) |[M:3/4]!<(! (B2 c2)!<)! e2 | %49
w: Mai- den mild, *|Mo * ther|
[M:6/4]!f! d2 c2 d4 !fermata!c4 |] %50
w: |
V:2
 z2 |[M:4/4] z8 |[M:5/4] z10 | c4 A2 A2 A2 |[M:3/4] B2 G4 |[M:4/4] z8 |[M:5/4] z10 | c4 A2 A2 A2 | %8
[M:4/4] B2 G4 z2 | z8 |[M:5/4] z10 |[M:4/4] z8 |[M:6/4] z4 z2 z4 F2 |[M:4/4] F4 F4 |[M:5/4] z10 | %15
[M:3/4] z2 z2 F2 |[M:5/4] G4 E4 ||[M:5/4] z2 |[M:4/4] z8 |[M:5/4] z10 | c4 A2 A2 A2 | %21
[M:4/4] B2 G4 z2 |[M:4/4] z8 |[M:5/4] z10 | c4 A2 A2 A2 |[M:4/4] B2 G4 z2 | z8 |[M:5/4] z10 | %28
[M:4/4] z8 |[M:6/4] z4 z2 z4!p!"^TUTTI" [Fc]2 |[M:4/4] [Fd]4"^cresc." [Fc]4 |[M:5/4] z10 | %32
[M:3/4] z2 z2 F2 |[M:4/4] G4 E4 ||[M:4/4] G2 G2 E2 G2 |[M:5/4] E4 G2 G4 | c4 A2 A2 A2 | %37
[M:3/4] B2 G4 |[M:4/4] G2 G2 E2 G2 |[M:5/4] A4 A2 c4 | c4 A2 A2 A2 |[M:4/4] B2 G4 G2 | %42
[M:4/4] F2 F2 G2 F2 |[M:5/4] F4 E2 E4 |[M:4/4] E2 E2 G2 G2 |[M:6/4] A4 A2 A4 [Fc]2 | %46
[M:4/4] [Fd]4 [Fc]4 | c2 A2 (G2 A2) |[M:3/4] G4 c2 |[M:6/4] A2 A2 B4 G4 |] %50
V:3
!f! G,2 |[M:4/4] C2 G,2 A,2 B,2 |[M:5/4] C4 D2 E4 |!f! G4 F2 F2 E2 |[M:3/4] G2 E4 | %5
w: Of|one that is so|fair and bright,|||
[M:4/4] C2 G,2 A,2 B,2 |[M:5/4] C4 D2 E4 | G4 F2 F2 E2 |[M:4/4] G2 E4!mp! G,2 | A,2 B,2 C2 B,2 | %10
w: Bright- er than the|day is light;||* * I|cry to thee to|
[M:5/4] B,4 G,2 A,4 |[M:4/4] E2 A,2 B,2 C2 |[M:6/4] E4 E2 F6- |[M:4/4] F6"^cresc." E2 | %14
w: turn to me,|La- dy, pray thy|Son for me|* that|
[M:5/4]"^rit." D2 C2 E4 D2 |[M:3/4] D4!f! A,2 |[M:5/4] B,4 C4 ||[M:5/4] z2 |[M:4/4] z8 | %19
w: I may come to|thee *||||
[M:5/4] z10 |!f! G4 F2 F2 E2 |[M:4/4] G2 E4 z2 |[M:4/4]"^This edition  Andrew Sims 2016" z8 | %23
w: ||||
[M:5/4] z10 | G4 F2 F2 E2 |[M:4/4] G2 E4 z2 | z8 |[M:5/4] z10 |[M:4/4] z8 |[M:6/4] x8 x2!p! A,2 | %30
w: |||||||
[M:4/4] _B,4 A,4 |[M:5/4] z10 |[M:3/4] z2 z2!f! A,2 |[M:4/4] B,4 C4 ||[M:4/4]!p! E2 D2 C2 D2 | %35
w: |||||
[M:5/4] C4 B,2 B,4 |!f! G4 F2 F2 E2 |[M:3/4] G2 E4 |[M:4/4]!p! E2 D2 C2 D2 |[M:5/4] F4 F2 G4 | %40
w: |||||
!f! G4 F2 F2 E2 |[M:4/4] G2 E4!p! G,2 |[M:4/4] C2 D2 E2 D2 |[M:5/4] D4 B,2 C4 | %44
w: ||||
[M:4/4] C2 C2 D2 C2 |[M:6/4] C4 C2 C4!p! A,2 |[M:4/4] _B,4 A,4 |!p! C2 A,2"^cresc." (G,2 A,2) | %48
w: ||||
[M:3/4]!<(! (D2 C2)!<)! G2 |[M:6/4]!f! F2 E2 G4 E4 |] %50
w: ||
V:4
 z2 |[M:4/4] z8 |[M:5/4] z10 | C4 D2 D2 A,2 |[M:3/4] G,2 C4 |[M:4/4] z8 |[M:5/4] z10 | %7
w: |||Ve- lut ma- ris|stel- la.|||
 C4 D2 D2 A,2 |[M:4/4] G,2 C4 z2 | z8 |[M:5/4] z10 |[M:4/4] z8 |[M:6/4] z4 z2 z4!p! [F,A,]2 | %13
w: Pa- rens et pu-|el- la.||||Tam|
[M:4/4] _B,4 [F,A,]4 |[M:5/4] z10 |[M:3/4] z2 z2 D,2 |[M:5/4] G,4 C,4 ||[M:5/4] z2 |[M:4/4] z8 | %19
w: pi- a||Ma-|ri- a.|||
[M:5/4] z10 | C4 D2 D2 A,2 |[M:4/4] G,2 C4 z2 |[M:4/4] z8 |[M:5/4] z10 | C4 D2 D2 A,2 | %25
w: |Fe- lix fe- cun-|da- ta.|||Ma- ter ho- no-|
[M:4/4] G,2 C4 z2 | z8 |[M:5/4] z10 |[M:4/4] z8 |[M:6/4] z4 z2 z4 F,2 |[M:4/4] _B,4 F,4 | %31
w: ra- ta.||||In|Cru- ce|
[M:5/4] z10 |[M:3/4] z2 z2 D,2 |[M:4/4] G,4 C,4 ||[M:4/4] C2 B,2 A,2 G,2 |[M:5/4] A,4 G,2 E,4 | %36
w: |in|lu- ce.|||
 C4 D2 D2 A,2 |[M:3/4] G,2 C4 |[M:4/4] C2 B,2 A,2 G,2 |[M:5/4] F,4 D,2 C,4 | C4 D2 D2 A,2 | %41
w: Ro- sa si- ne|spi- na,|||Gra- ti- a Di-|
[M:4/4] G,2 C4 G,2 |[M:4/4] F,2 D,2 C,2 D,2 |[M:5/4] D,4 E,2 A,,4 |[M:4/4] A,2 G,2 F,2 E,2 | %45
w: vi- na. Of||||
[M:6/4] A,4 A,2 F,4 F,2 |[M:4/4] _B,4 F,4 | C2 A,2 (G,2 A,2) |[M:3/4] (G,2 E,2) C,2 | %49
w: * * * E-|lec- ta.|||
[M:6/4] F,2 A,2 G,4 !fermata!C4 |] %50
w: Es ef- fec- ta.|

